public/assets/images/icons/km-icon-3.svg

<svg width="103" height="146" viewBox="0 0 103 146" fill="none" xmlns="http://www.w3.org/2000/svg">
<path d="M39.1331 130.267C34.6961 130.267 30.2421 129.524 25.8581 128.032C24.9481 127.722 24.0261 127.376 23.1201 127.002C19.6511 125.57 15.7081 123.804 12.7661 121.569C12.6261 121.462 12.5621 121.283 12.6031 121.112C12.6441 120.941 12.7821 120.81 12.9551 120.778C14.4231 120.51 15.9151 120.302 17.3591 120.101C20.1021 119.719 22.9381 119.323 25.6901 118.502C39.5421 114.369 49.7211 105.569 55.1261 93.0546C58.7321 84.7066 63.4051 79.9296 69.0141 78.8566C74.5811 77.7896 82.0661 81.1906 83.3671 87.1676C84.5161 92.4436 82.0191 98.4086 79.1501 104.068C74.1871 113.858 66.2771 121.71 56.8771 126.174C51.1431 128.899 45.1541 130.267 39.1331 130.267ZM14.1491 121.473C16.9001 123.365 20.3681 124.906 23.4581 126.182C24.3471 126.549 25.2511 126.889 26.1441 127.193C36.2531 130.632 46.7491 130.003 56.4951 125.374C65.7191 120.993 73.483 113.284 78.357 103.668C81.152 98.1546 83.5881 92.3626 82.4981 87.3576C81.5151 82.8416 75.4801 78.5266 69.1791 79.7296C63.8761 80.7436 59.4221 85.3456 55.9391 93.4076C50.4261 106.171 40.0541 115.143 25.9421 119.354C23.1261 120.194 20.2561 120.595 17.4801 120.981C16.3861 121.133 15.2631 121.29 14.1491 121.473Z" fill="#0A1640"/>
<path d="M12.3594 117.868C12.1414 117.868 11.9504 117.707 11.9204 117.485C11.6944 115.839 11.5634 114.162 11.5334 112.503C11.4864 109.948 11.6754 107.37 12.0924 104.841C12.1324 104.599 12.3614 104.433 12.6034 104.475C12.8454 104.515 13.0084 104.743 12.9694 104.985C12.5604 107.461 12.3754 109.985 12.4214 112.486C12.4514 114.11 12.5784 115.751 12.8004 117.363C12.8344 117.606 12.6644 117.83 12.4214 117.863C12.3994 117.867 12.3794 117.868 12.3594 117.868Z" fill="#0A1640"/>
<path d="M15.6265 115.678L15.9155 120.902C15.9345 121.254 15.8955 121.594 15.8025 121.915C15.4555 123.178 14.3325 124.131 12.9555 124.207C11.2215 124.303 9.74046 122.977 9.64446 121.248L9.35547 116.024C9.30747 115.162 9.61647 114.354 10.1535 113.761C10.4565 113.423 10.8265 113.149 11.2535 112.973C11.5825 112.828 11.9415 112.74 12.3205 112.719C14.0495 112.623 15.5305 113.949 15.6265 115.678Z" fill="#A7D640"/>
<path opacity="0.25" d="M15.8025 121.915C15.4555 123.178 14.3325 124.131 12.9555 124.207C11.2215 124.303 9.74046 122.977 9.64446 121.248L9.35547 116.024C9.30747 115.162 9.61647 114.354 10.1535 113.761C10.4565 113.423 10.8265 113.149 11.2535 112.973C11.4955 114.673 11.9085 116.332 12.6375 117.894C13.3505 119.436 14.4575 120.856 15.8025 121.915Z" fill="#0A1640"/>
<path d="M12.7775 124.657C11.8935 124.657 11.0525 124.337 10.3895 123.744C9.67554 123.106 9.25454 122.229 9.20154 121.274L8.91253 116.05C8.86053 115.106 9.19253 114.163 9.82353 113.464C10.1815 113.064 10.6055 112.761 11.0835 112.563C11.4615 112.397 11.8725 112.299 12.2955 112.276C13.2485 112.222 14.1685 112.545 14.8815 113.184C15.5945 113.822 16.0165 114.7 16.0685 115.654L16.3575 120.878C16.3795 121.276 16.3355 121.666 16.2275 122.039C15.8225 123.514 14.5165 124.566 12.9795 124.651C12.9125 124.655 12.8445 124.657 12.7775 124.657ZM12.4975 113.157C12.4475 113.157 12.3965 113.158 12.3455 113.161C12.0285 113.178 11.7215 113.252 11.4325 113.378C11.0705 113.528 10.7535 113.755 10.4845 114.056C10.0095 114.582 9.76054 115.289 9.79954 115.999L10.0885 121.223C10.1285 121.941 10.4455 122.601 10.9825 123.081C11.5195 123.561 12.2135 123.805 12.9325 123.764C14.0885 123.7 15.0705 122.91 15.3755 121.797C15.4575 121.514 15.4895 121.223 15.4735 120.926L15.1845 115.702C15.1445 114.984 14.8275 114.324 14.2915 113.844C13.7925 113.399 13.1605 113.157 12.4975 113.157Z" fill="#0A1640"/>
<path d="M97.733 63.9427L94.937 70.3047C94.399 71.5287 93.037 72.1627 91.757 71.7837L88.951 70.9567L79.933 68.3017C78.65 67.9277 77.848 66.6547 78.059 65.3367L79.159 58.4717L86.414 60.6057L97.733 63.9427Z" fill="#D811AD"/>
<path opacity="0.25" d="M88.951 70.9567L79.933 68.3017C78.65 67.9277 77.848 66.6547 78.059 65.3367L79.159 58.4717L86.414 60.6057C86.285 63.7077 86.896 66.8447 88.246 69.6437C88.461 70.0907 88.696 70.5337 88.951 70.9567Z" fill="#0A1640"/>
<path d="M92.504 72.3357C92.214 72.3357 91.921 72.2947 91.631 72.2097L79.808 68.7277C78.315 68.2927 77.375 66.8047 77.621 65.2667L78.721 58.4017C78.741 58.2757 78.814 58.1647 78.922 58.0967C79.03 58.0287 79.162 58.0097 79.284 58.0457L97.859 63.5167C97.981 63.5527 98.082 63.6397 98.136 63.7557C98.19 63.8717 98.191 64.0047 98.14 64.1217L95.344 70.4837C94.839 71.6307 93.705 72.3357 92.504 72.3357ZM79.517 59.0397L78.497 65.4067C78.321 66.5037 78.992 67.5647 80.057 67.8747L91.882 71.3567C92.945 71.6717 94.084 71.1417 94.53 70.1247L97.123 64.2247L79.517 59.0397Z" fill="#0A1640"/>
<path d="M72.1112 54.2346L62.5002 64.2486L27.0432 101.197L24.6521 103.687C22.7181 105.707 20.3862 107.062 17.9212 107.775C11.8922 109.525 5.05015 107.457 1.13815 101.859C0.367148 100.753 0.247149 99.3526 0.754149 98.1606C0.906149 97.8026 1.11615 97.4566 1.38515 97.1476L37.1672 55.7216L49.9251 40.9546L72.1112 54.2346Z" fill="#845EF9"/>
<path d="M62.5006 64.2466L38.0296 89.7436L33.3196 94.6506L32.6986 95.3016L29.7446 98.3786L27.0416 101.195L21.6806 99.7796C18.5436 98.9516 17.3996 95.0896 19.5796 92.6826L32.1206 78.8246L43.6016 66.1455L44.2076 65.4746L46.5456 62.8955C47.6206 61.7075 49.2576 61.1945 50.8216 61.5545L52.6216 61.9685L62.5006 64.2466Z" fill="#FFCE00"/>
<path opacity="0.5" d="M30.1106 88.4616C27.7036 91.2976 27.4966 95.4746 29.7456 98.3786L27.0426 101.195L21.6816 99.7796C18.5446 98.9516 17.4006 95.0896 19.5806 92.6826L32.1216 78.8246L43.6026 66.1455L44.2086 65.4746L46.5466 62.8955C47.6216 61.7075 49.2586 61.1945 50.8226 61.5545L52.6226 61.9685L30.1106 88.4616Z" fill="#E38921"/>
<path d="M38.0306 89.7437L33.3206 94.6507L32.6996 95.2967V95.3017L29.7456 98.3787L27.0426 101.195L21.6816 99.7797C18.5446 98.9517 17.4006 95.0897 19.5806 92.6827L32.1216 78.8247C32.5556 80.5407 33.1766 82.2177 33.9656 83.8107C33.9756 83.8357 33.9906 83.8547 34.0006 83.8797C35.0616 86.0097 36.4276 87.9927 38.0306 89.7437Z" fill="#D811AD"/>
<path opacity="0.75" d="M55.1943 66.2094C53.9133 67.7954 52.5693 69.3204 51.2033 70.8244C49.8413 72.3324 48.4423 73.8034 47.0363 75.2684C45.6183 76.7214 44.1923 78.1664 42.7293 79.5764C41.2703 80.9894 39.7883 82.3804 38.2433 83.7104C38.0613 83.8674 37.7873 83.8464 37.6303 83.6644C37.4913 83.5024 37.4923 83.2674 37.6223 83.1074C38.9053 81.5234 40.2523 80.0014 41.6213 78.5004C42.9863 76.9964 44.3883 75.5274 45.7983 74.0664C47.2203 72.6174 48.6493 71.1754 50.1163 69.7684C51.5783 68.3584 53.0633 66.9694 54.6103 65.6424C54.7813 65.4954 55.0393 65.5154 55.1873 65.6864C55.3173 65.8384 55.3163 66.0584 55.1943 66.2094Z" fill="white"/>
<g opacity="0.25">
<path d="M38.6222 58.4047C38.3322 57.4177 37.7772 56.5587 37.1662 55.7207L1.38417 97.1467C1.11517 97.4557 0.906173 97.8017 0.753173 98.1597C0.246173 99.3517 0.366172 100.752 1.13717 101.858C5.04917 107.456 11.8922 109.524 17.9202 107.774C16.4712 106.312 15.3082 104.622 14.6082 102.608C11.1002 92.5477 19.7302 83.5477 35.0382 66.1067C36.9162 63.9657 39.5272 61.5517 38.6222 58.4047Z" fill="#0A1640"/>
<path d="M32.1226 78.8247L19.5816 92.6827C17.4016 95.0897 18.5456 98.9507 21.6826 99.7797L27.0436 101.195L29.7466 98.3787C27.4976 95.4737 27.7046 91.2967 30.1116 88.4617L34.0026 83.8797C33.9926 83.8547 33.9776 83.8357 33.9676 83.8107C33.1776 82.2177 32.5566 80.5407 32.1226 78.8247Z" fill="#0A1640"/>
</g>
<path d="M72.3388 53.8538L50.1518 40.5738C49.9668 40.4628 49.7288 40.5018 49.5878 40.6638L1.0488 96.8568C0.758796 97.1908 0.521797 97.5708 0.344797 97.9868C-0.236202 99.3528 -0.0762017 100.896 0.773798 102.113C3.7658 106.394 8.6118 108.827 13.6558 108.827C15.1158 108.827 16.5918 108.623 18.0448 108.201C20.6698 107.441 23.0658 105.986 24.9728 103.994L72.4318 54.5418C72.5248 54.4448 72.5698 54.3098 72.5518 54.1758C72.5328 54.0408 72.4548 53.9228 72.3388 53.8538ZM31.9058 79.7288C32.3278 81.1948 32.8838 82.6268 33.5538 83.9768C33.5658 84.0068 33.5798 84.0338 33.6028 84.0788C34.6188 86.1198 35.9028 88.0198 37.4228 89.7348L32.3788 94.9888C32.3698 94.9978 32.3618 95.0078 32.3538 95.0188L26.9028 100.699L21.7948 99.3508C20.4738 99.0018 19.4528 98.0108 19.0628 96.6988C18.6738 95.3858 18.9898 93.9958 19.9088 92.9808L31.9058 79.7288ZM32.6158 78.9448L46.8758 63.1938C47.6378 62.3518 48.7168 61.8858 49.8288 61.8858C50.1258 61.8858 50.4258 61.9188 50.7228 61.9878L61.6388 64.5048L38.0488 89.0848C36.6008 87.4428 35.3688 85.6348 34.4128 83.7188C34.3998 83.6868 34.3858 83.6588 34.3628 83.6148C33.6218 82.1168 33.0378 80.5468 32.6158 78.9448ZM62.3558 63.7578L50.9208 61.1218C49.2018 60.7248 47.3988 61.2908 46.2168 62.5978L31.8008 78.5218C31.7978 78.5248 31.7938 78.5248 31.7918 78.5278L19.2508 92.3848C18.1218 93.6308 17.7338 95.3388 18.2118 96.9508C18.6898 98.5618 19.9438 99.7798 21.5678 100.209L26.2008 101.432L24.3318 103.38C22.5318 105.26 20.2728 106.632 17.7978 107.349C11.6888 109.121 5.1408 106.813 1.5018 101.605C0.828799 100.64 0.701799 99.4168 1.1618 98.3338C1.3018 98.0038 1.4898 97.7028 1.7198 97.4368L50.0158 41.5258L71.4048 54.3288L62.3558 63.7578Z" fill="#0A1640"/>
<path d="M94.5629 65.9233L80.0329 61.5543L42.0049 50.1243C42.0049 50.1243 51.3169 38.8623 53.8199 37.0093C56.7409 34.8483 60.2699 33.5963 63.9209 33.4563C66.5019 33.3583 69.1459 33.8133 71.6799 34.8903L98.9149 46.4683C101.202 47.4403 102.607 49.7713 102.397 52.2443L101.598 61.6853C101.308 65.1243 97.7399 67.2743 94.5629 65.9233Z" fill="#00D4FC"/>
<path d="M86.4034 54.0713C85.9054 53.0103 84.2364 51.9083 82.1664 51.9783C80.8314 52.0233 79.6904 53.0203 80.2824 54.2573C81.7194 57.2603 87.7404 56.9183 86.4034 54.0713Z" fill="#D811AD"/>
<path d="M70.8485 48.3543C69.2035 47.0953 67.2055 47.0233 66.1835 47.5973C63.4415 49.1383 68.1445 52.9133 71.0575 51.3033C72.2585 50.6403 71.9095 49.1663 70.8485 48.3543Z" fill="#D811AD"/>
<path opacity="0.75" d="M97.9851 49.7434C98.0871 50.8504 98.1011 51.9504 98.0851 53.0484C98.0741 54.1464 98.0121 55.2414 97.9401 56.3344C97.8511 57.4264 97.7511 58.5184 97.6001 59.6054C97.4541 60.6934 97.2771 61.7794 97.0121 62.8574C96.9541 63.0934 96.7161 63.2364 96.4811 63.1794C96.2941 63.1334 96.1651 62.9734 96.1481 62.7924C96.0501 61.6854 96.0391 60.5864 96.0591 59.4884C96.0741 58.3904 96.1411 57.2964 96.2181 56.2034C96.3121 55.1114 96.4161 54.0204 96.5721 52.9334C96.7221 51.8454 96.9031 50.7604 97.1711 49.6824C97.2261 49.4614 97.4501 49.3264 97.6711 49.3814C97.8491 49.4244 97.9701 49.5734 97.9851 49.7434Z" fill="white"/>
<path opacity="0.25" d="M80.0329 61.5545L42.0049 50.1245C42.0049 50.1245 51.3169 38.8626 53.8199 37.0096C56.7409 34.8486 60.2699 33.5965 63.9209 33.4565C59.6809 38.3975 57.6899 44.4146 59.5589 48.0236C63.1509 54.9666 79.3029 52.9785 80.0329 61.5545Z" fill="#3C1DA1"/>
<path d="M96.5555 66.7786C95.8325 66.7786 95.1065 66.6336 94.4115 66.3416L41.8765 50.5506C41.7345 50.5076 41.6225 50.3966 41.5795 50.2536C41.5365 50.1106 41.5675 49.9566 41.6625 49.8426C42.0445 49.3806 51.0375 38.5176 53.5555 36.6536C56.5775 34.4166 60.1565 33.1576 63.9035 33.0136C66.6395 32.9096 69.3155 33.4036 71.8525 34.4826L99.0875 46.0596C101.559 47.1096 103.066 49.6106 102.838 52.2816L102.039 61.7226C101.889 63.5056 100.924 65.0576 99.3905 65.9806C98.5135 66.5106 97.5375 66.7786 96.5555 66.7786ZM42.7745 49.8926L94.6895 65.4976C94.7055 65.5026 94.7205 65.5086 94.7355 65.5146C96.1185 66.1026 97.6485 65.9956 98.9335 65.2206C100.219 64.4456 101.029 63.1436 101.155 61.6476L101.954 52.2056C102.149 49.9176 100.858 47.7756 98.7405 46.8756L71.5055 35.2976C69.0895 34.2706 66.5455 33.8006 63.9375 33.8996C60.3695 34.0366 56.9615 35.2356 54.0825 37.3656C51.9545 38.9426 44.6285 47.6686 42.7745 49.8926Z" fill="#0A1640"/>
<path d="M72.9679 44.6364C72.6109 45.7614 71.5179 46.3024 70.4469 45.9824C69.3649 45.6584 68.7599 44.4484 69.0919 43.4564C69.4509 42.3834 70.5369 41.8124 71.6219 42.1464C72.7299 42.4864 73.3139 43.5664 72.9679 44.6364Z" fill="#0A1640"/>
<path d="M83.8157 50.2726C82.8417 49.9886 82.2027 48.7016 82.5477 47.7596C82.8587 46.9106 83.8007 46.0736 85.1037 46.4596C87.5847 47.1946 86.5287 51.0636 83.8157 50.2726Z" fill="#0A1640"/>
<path d="M76.7532 51.5988C76.1082 51.5988 75.5132 51.3428 75.0572 50.8538C74.0542 49.7788 73.9492 47.8438 74.7692 45.5448C74.8522 45.3138 75.1052 45.1938 75.3362 45.2758C75.5672 45.3578 75.6872 45.6118 75.6052 45.8428C74.9112 47.7888 74.9492 49.4358 75.7072 50.2478C76.0982 50.6668 76.6382 50.8068 77.2252 50.6428C78.1162 50.3938 79.2292 49.3528 79.6802 47.1808C79.7302 46.9408 79.9642 46.7878 80.2052 46.8368C80.4452 46.8868 80.5992 47.1218 80.5492 47.3618C80.0982 49.5378 78.9442 51.0838 77.4642 51.4988C77.2232 51.5658 76.9842 51.5988 76.7532 51.5988Z" fill="#0A1640"/>
<path d="M78.4247 0.306473C78.2207 -0.0725275 77.7347 -0.102516 77.4677 0.230484C77.1817 0.588484 77.0347 1.02148 76.8627 1.44048C75.5907 4.54048 73.8407 5.95648 73.1257 6.64448C72.9467 6.81748 72.7637 7.45747 73.0247 7.76247C73.7817 8.65047 75.3467 9.75247 76.7097 13.3875C76.8317 13.7135 76.9597 14.0415 77.1317 14.3425C77.3697 14.7615 77.8797 14.7885 78.1617 14.3865C78.8007 13.4775 78.8387 12.0315 80.9687 9.53346C82.2187 8.06846 83.4347 7.60746 82.3907 6.71846C79.7887 4.50346 78.8977 1.18447 78.4247 0.306473Z" fill="#E38921"/>
<path d="M39.3698 3.5236C39.1348 3.0876 38.5748 3.0526 38.2678 3.4366C37.9388 3.8486 37.7688 4.3476 37.5708 4.8296C36.1028 8.4066 34.0798 10.0396 33.2668 10.8236C33.0608 11.0226 32.8488 11.7596 33.1498 12.1116C33.3318 12.3246 33.5158 12.5376 33.7188 12.7306C36.5798 15.4436 37.2498 18.5826 37.8798 19.6896C38.1548 20.1726 38.7408 20.2036 39.0668 19.7406C39.2938 19.4176 39.4658 19.0446 39.6028 18.6716C41.7388 12.8516 45.7348 12.4406 43.9378 10.9096C40.9418 8.35759 39.9148 4.5356 39.3698 3.5236Z" fill="#E38921"/>
<path d="M69.9688 128.034C69.8629 127.55 69.3343 127.362 68.9337 127.647C68.5045 127.953 68.2026 128.386 67.8796 128.795C65.4835 131.829 63.0889 132.841 62.0905 133.371C61.8369 133.505 61.4305 134.155 61.6232 134.577C61.7398 134.832 61.858 135.088 62.0003 135.329C64.0032 138.725 63.7826 141.928 64.083 143.166C64.2138 143.705 64.7694 143.897 65.21 143.542C65.5175 143.293 65.7851 142.982 66.02 142.661C69.6765 137.654 73.6317 138.36 72.3247 136.393C70.1482 133.114 70.2141 129.158 69.9688 128.034Z" fill="#E38921"/>
</svg>

<svg xmlns="http://www.w3.org/2000/svg" width="103" height="146" fill="none"><path fill="#0A1640" d="M39.133 130.267c-4.437 0-8.89-.743-13.275-2.235-.91-.31-1.832-.656-2.738-1.03-3.469-1.432-7.412-3.198-10.354-5.433a.445.445 0 0 1 .19-.791c1.467-.268 2.96-.476 4.403-.677 2.743-.382 5.58-.778 8.331-1.599 13.852-4.133 24.031-12.933 29.436-25.447 3.606-8.348 8.28-13.125 13.888-14.198 5.567-1.067 13.052 2.334 14.353 8.31 1.15 5.277-1.348 11.242-4.217 16.901-4.963 9.79-12.873 17.642-22.273 22.106-5.734 2.725-11.723 4.093-17.744 4.093m-24.984-8.794c2.751 1.892 6.22 3.433 9.31 4.709.888.367 1.792.707 2.685 1.011 10.11 3.439 20.605 2.81 30.351-1.819 9.224-4.381 16.988-12.09 21.862-21.706 2.795-5.513 5.231-11.305 4.141-16.31-.983-4.516-7.018-8.831-13.319-7.628-5.303 1.014-9.757 5.616-13.24 13.678-5.513 12.763-15.885 21.735-29.997 25.946-2.816.84-5.686 1.241-8.462 1.627-1.094.152-2.217.309-3.33.492M12.36 117.868a.44.44 0 0 1-.44-.383 42 42 0 0 1-.387-4.982 42.4 42.4 0 0 1 .56-7.662.444.444 0 0 1 .877.144 41.5 41.5 0 0 0-.549 7.501c.03 1.624.157 3.265.38 4.877a.443.443 0 0 1-.442.505"/><path fill="#A7D640" d="m15.627 115.678.288 5.224q.028.53-.112 1.013a3.14 3.14 0 0 1-6.158-.667l-.29-5.224a3.11 3.11 0 0 1 .798-2.263 3 3 0 0 1 1.1-.788 3 3 0 0 1 1.067-.254 3.14 3.14 0 0 1 3.307 2.959"/><path fill="#0A1640" d="M15.803 121.915a3.14 3.14 0 0 1-6.158-.667l-.29-5.224a3.11 3.11 0 0 1 .798-2.263 3 3 0 0 1 1.1-.788c.242 1.7.656 3.359 1.384 4.921a11.1 11.1 0 0 0 3.165 4.021" opacity=".25"/><path fill="#0A1640" d="M12.778 124.657c-.885 0-1.726-.32-2.389-.913a3.55 3.55 0 0 1-1.187-2.47l-.29-5.224a3.6 3.6 0 0 1 .912-2.586 3.46 3.46 0 0 1 1.26-.901 3.5 3.5 0 0 1 1.212-.287 3.55 3.55 0 0 1 2.586.908 3.55 3.55 0 0 1 1.187 2.47l.289 5.224c.021.398-.023.788-.13 1.161a3.566 3.566 0 0 1-3.45 2.618m-.28-11.5q-.075 0-.152.004a2.6 2.6 0 0 0-.914.217q-.543.226-.947.678a2.7 2.7 0 0 0-.685 1.943l.288 5.224c.04.718.357 1.378.895 1.858.537.48 1.23.724 1.95.683a2.68 2.68 0 0 0 2.443-1.967q.123-.425.098-.871l-.29-5.224a2.68 2.68 0 0 0-.893-1.858 2.68 2.68 0 0 0-1.793-.687"/><path fill="#D811AD" d="m97.733 63.943-2.796 6.362a2.65 2.65 0 0 1-3.18 1.479l-2.806-.827-9.018-2.655a2.65 2.65 0 0 1-1.874-2.965l1.1-6.865 7.255 2.134z"/><path fill="#0A1640" d="m88.951 70.957-9.018-2.655a2.65 2.65 0 0 1-1.874-2.965l1.1-6.865 7.255 2.134c-.129 3.102.482 6.239 1.832 9.038.215.447.45.89.705 1.313" opacity=".25"/><path fill="#0A1640" d="M92.504 72.336q-.437 0-.873-.126l-11.823-3.482a3.1 3.1 0 0 1-2.187-3.461l1.1-6.865a.442.442 0 0 1 .563-.356l18.575 5.47a.445.445 0 0 1 .281.606l-2.796 6.362a3.11 3.11 0 0 1-2.84 1.852M79.517 59.04l-1.02 6.367a2.21 2.21 0 0 0 1.56 2.468l11.825 3.482a2.21 2.21 0 0 0 2.648-1.232l2.593-5.9z"/><path fill="#845EF9" d="m72.111 54.235-9.61 10.014-35.458 36.948-2.39 2.49a15.1 15.1 0 0 1-6.732 4.088c-6.029 1.75-12.87-.318-16.783-5.916a3.84 3.84 0 0 1 .247-4.711l35.782-41.426 12.758-14.767z"/><path fill="#FFCE00" d="M62.5 64.247 38.03 89.744l-4.71 4.907-.621.65-2.954 3.078-2.703 2.816-5.361-1.415c-3.137-.828-4.281-4.69-2.101-7.097l12.54-13.858 11.482-12.68.606-.67 2.338-2.58a4.43 4.43 0 0 1 4.276-1.34l1.8.413z"/><path fill="#E38921" d="M30.11 88.462c-2.406 2.836-2.613 7.013-.364 9.917l-2.703 2.816-5.361-1.415c-3.137-.828-4.281-4.69-2.101-7.097l12.54-13.858 11.482-12.68.606-.67 2.338-2.58a4.43 4.43 0 0 1 4.276-1.34l1.8.413z" opacity=".5"/><path fill="#D811AD" d="m38.03 89.744-4.71 4.907-.62.646v.005l-2.954 3.077-2.703 2.816-5.361-1.415c-3.137-.828-4.281-4.69-2.101-7.097l12.54-13.858a25 25 0 0 0 1.845 4.986c.01.025.025.044.035.069a25.6 25.6 0 0 0 4.03 5.864"/><path fill="#fff" d="M55.194 66.21c-1.28 1.585-2.625 3.11-3.99 4.614a201 201 0 0 1-4.168 4.444 199 199 0 0 1-4.307 4.308c-1.459 1.413-2.94 2.804-4.486 4.134a.434.434 0 0 1-.62-.603c1.282-1.584 2.63-3.106 3.998-4.607a199 199 0 0 1 4.177-4.434 201 201 0 0 1 4.318-4.298c1.462-1.41 2.947-2.799 4.494-4.126a.41.41 0 0 1 .584.567" opacity=".75"/><g fill="#0A1640" opacity=".25"><path d="M38.622 58.405c-.29-.987-.845-1.846-1.456-2.684L1.384 97.147a3.84 3.84 0 0 0-.247 4.711c3.912 5.598 10.755 7.666 16.783 5.916-1.449-1.462-2.612-3.152-3.312-5.166-3.508-10.06 5.122-19.06 20.43-36.501 1.878-2.141 4.49-4.555 3.584-7.702"/><path d="M32.123 78.825 19.582 92.683c-2.18 2.407-1.036 6.268 2.1 7.097l5.362 1.415 2.703-2.816c-2.25-2.905-2.042-7.082.365-9.917l3.89-4.582c-.01-.025-.024-.044-.034-.07a25 25 0 0 1-1.845-4.985"/></g><path fill="#0A1640" d="m72.339 53.854-22.187-13.28a.445.445 0 0 0-.564.09L1.048 96.857c-.29.334-.526.714-.703 1.13a4.26 4.26 0 0 0 .429 4.126 15.71 15.71 0 0 0 17.27 6.088 15.6 15.6 0 0 0 6.929-4.207l47.459-49.452a.445.445 0 0 0-.093-.688M31.906 79.729a25.4 25.4 0 0 0 1.648 4.248c.012.03.026.057.049.102a26 26 0 0 0 3.82 5.656l-5.044 5.254-.025.03-5.451 5.68-5.108-1.348a3.86 3.86 0 0 1-2.732-2.652 3.86 3.86 0 0 1 .846-3.718zm.71-.784 14.26-15.751a3.99 3.99 0 0 1 3.847-1.206l10.916 2.517-23.59 24.58a25 25 0 0 1-3.686-5.47 24.8 24.8 0 0 1-1.747-4.67m29.74-15.187L50.92 61.122a4.87 4.87 0 0 0-4.704 1.476L31.8 78.522q-.005.003-.01.006l-12.54 13.857a4.74 4.74 0 0 0-1.04 4.566 4.74 4.74 0 0 0 3.357 3.258l4.633 1.223-1.87 1.948a14.74 14.74 0 0 1-6.533 3.969 14.83 14.83 0 0 1-16.296-5.744 3.38 3.38 0 0 1-.34-3.271q.212-.497.558-.897l48.296-55.911 21.389 12.803z"/><path fill="#00D4FC" d="m94.563 65.923-14.53-4.369-38.028-11.43S51.317 38.862 53.82 37.01a18.2 18.2 0 0 1 10.1-3.553 18.04 18.04 0 0 1 7.76 1.434l27.235 11.578a5.75 5.75 0 0 1 3.482 5.776l-.799 9.441c-.29 3.44-3.858 5.59-7.035 4.238"/><path fill="#D811AD" d="M86.403 54.071c-.498-1.06-2.167-2.163-4.237-2.093-1.335.045-2.476 1.042-1.884 2.28 1.437 3.002 7.458 2.66 6.121-.187M70.849 48.354c-1.645-1.259-3.644-1.33-4.666-.757-2.742 1.541 1.961 5.316 4.874 3.706 1.201-.663.852-2.137-.209-2.949"/><path fill="#fff" d="M97.985 49.743c.102 1.107.116 2.207.1 3.305a59 59 0 0 1-.145 3.286 58 58 0 0 1-.34 3.271c-.146 1.088-.323 2.174-.588 3.252a.44.44 0 0 1-.864-.065c-.098-1.107-.109-2.206-.089-3.304.015-1.098.082-2.192.16-3.285.093-1.092.197-2.183.353-3.27.15-1.088.331-2.173.6-3.25a.413.413 0 0 1 .5-.302.41.41 0 0 1 .313.362" opacity=".75"/><path fill="#3C1DA1" d="m80.033 61.555-38.028-11.43S51.317 38.863 53.82 37.01a18.2 18.2 0 0 1 10.1-3.553c-4.24 4.94-6.23 10.958-4.361 14.567 3.592 6.943 19.744 4.954 20.474 13.53" opacity=".25"/><path fill="#0A1640" d="M96.556 66.779a5.5 5.5 0 0 1-2.144-.437L41.876 50.55a.444.444 0 0 1-.213-.708c.382-.462 9.375-11.325 11.893-13.19a18.52 18.52 0 0 1 10.348-3.64c2.735-.103 5.411.39 7.949 1.47L99.088 46.06a6.18 6.18 0 0 1 3.75 6.222l-.799 9.44a5.45 5.45 0 0 1-2.648 4.259 5.47 5.47 0 0 1-2.836.798M42.774 49.893 94.69 65.498q.023.007.046.017a4.58 4.58 0 0 0 4.197-.294 4.58 4.58 0 0 0 2.222-3.573l.799-9.442a5.29 5.29 0 0 0-3.213-5.33L71.506 35.298a17.5 17.5 0 0 0-7.568-1.398 17.65 17.65 0 0 0-9.855 3.466c-2.128 1.577-9.454 10.303-11.308 12.527"/><path fill="#0A1640" d="M72.968 44.636c-.357 1.125-1.45 1.666-2.521 1.346-1.082-.324-1.687-1.534-1.355-2.526.359-1.073 1.445-1.644 2.53-1.31 1.108.34 1.692 1.42 1.346 2.49M83.816 50.273c-.974-.284-1.613-1.571-1.268-2.513.31-.85 1.253-1.686 2.556-1.3 2.48.735 1.425 4.604-1.288 3.813M76.753 51.599c-.645 0-1.24-.256-1.696-.745-1.003-1.075-1.108-3.01-.288-5.31a.444.444 0 0 1 .836.299c-.694 1.946-.656 3.593.102 4.405.391.419.931.559 1.518.395.891-.25 2.004-1.29 2.455-3.462a.444.444 0 0 1 .87.18c-.452 2.177-1.606 3.723-3.086 4.138-.24.067-.48.1-.71.1"/><path fill="#E38921" d="M78.425.306c-.204-.379-.69-.409-.957-.076-.286.358-.433.791-.605 1.21-1.272 3.1-3.022 4.516-3.737 5.204-.18.173-.362.813-.101 1.118.757.888 2.322 1.99 3.685 5.626.122.325.25.653.422.954.238.42.748.447 1.03.044.639-.909.677-2.354 2.807-4.853 1.25-1.465 2.466-1.926 1.422-2.815-2.602-2.215-3.493-5.534-3.966-6.412M39.37 3.524c-.235-.436-.795-.471-1.102-.087-.33.412-.5.91-.697 1.393-1.468 3.577-3.491 5.21-4.304 5.994-.206.199-.418.936-.117 1.288.182.213.366.426.569.619 2.86 2.713 3.53 5.852 4.16 6.959.276.483.862.514 1.188.05.227-.322.399-.695.536-1.068 2.136-5.82 6.132-6.231 4.335-7.762-2.996-2.552-4.023-6.374-4.568-7.386M69.969 128.034c-.106-.484-.635-.672-1.035-.387-.43.306-.731.739-1.054 1.148-2.396 3.034-4.791 4.046-5.79 4.576-.253.134-.66.784-.467 1.206.117.255.235.511.377.752 2.003 3.396 1.783 6.599 2.083 7.837.13.539.686.731 1.127.376.308-.249.575-.56.81-.881 3.657-5.007 7.612-4.301 6.305-6.268-2.177-3.279-2.11-7.235-2.356-8.359"/></svg>
